X: 735
T: Junmien yijia
%%abc-version 2.0
%%abcx-abcm2ps-target-version 5.9.1 (29 Sep 2008)
%%abc-creator hum2abc beta
%%abcx-conversion-date 2013/10/02 07:52:30
%%abc-edited-by Helmut Schaffrath
%%humdrum-veritas 50632819
%%humdrum-veritas-data 3124722805
%%continueall 1
%%barnumbers 0
L: 1/8
M: 2/4
K: G
G G F E [I:setbarnb 1]| 
G DD2 | 
G F E G | 
A4 | 
d e c B | 
dA2B | 
d G F E | 
d4 |]  



